svgs/solid/bahai.svg

<svg xmlns="http://www.w3.org/2000/svg" viewBox="0 0 512 512"><!-- Font Awesome Pro 6.0.0-alpha2 by @fontawesome - https://fontawesome.com License - https://fontawesome.com/license (Commercial License) --><path d="M496.209 202.5L386.209 187.125L428.084 82.75C434.709 66.125 416.459 50.5 401.459 60.125L307.459 120L273.334 12.875C270.584 4.25 263.334 0 255.959 0S241.334 4.25 238.584 12.875L204.459 120L110.459 60.125C95.459 50.625 77.209 66.125 83.834 82.75L125.709 187.125L15.709 202.5C-1.791 205 -5.916 228.75 9.709 237.25L107.834 289.875L33.334 373.375C22.459 385.625 31.584 404.375 46.709 404.375C47.959 404.375 49.334 404.125 50.709 403.875L159.334 380.25L155.209 492.75C154.709 504.375 164.084 512 173.584 512C178.709 512 183.959 509.75 187.834 504.75L255.959 415.875L324.209 504.75C327.959 509.75 333.209 512 338.334 512C347.834 512 357.209 504.375 356.709 492.75L352.709 380.25L461.209 403.875C478.584 407.625 490.459 386.625 478.584 373.375L404.084 289.875L502.209 237.125C517.834 228.75 513.709 205 496.209 202.5ZM338.459 311.625L286.584 300.375L288.584 354.125L255.959 311.625L223.334 354.125L225.334 300.375L173.459 311.625L209.084 271.75L162.084 246.625L214.709 239.25L194.709 189.375L239.709 218L255.959 166.75L272.209 218L317.209 189.375L297.209 239.25L349.834 246.625L302.834 271.75L338.459 311.625Z"/></svg>

<svg xmlns="http://www.w3.org/2000/svg" viewBox="0 0 512 512"><!--! Font Awesome Pro 6.0.0-alpha3 by @fontawesome - https://fontawesome.com License - https://fontawesome.com/license (Commercial License) --><path d="M496.3 202.5l-110-15.38l41.88-104.4c6.625-16.63-11.63-32.25-26.63-22.63L307.5 120l-34.13-107.1C270.6 4.25 263.4 0 255.1 0C248.6 0 241.4 4.25 238.6 12.88L204.5 120L110.5 60.12c-15-9.5-33.22 5.1-26.6 22.63l41.85 104.4L15.71 202.5C-1.789 205-5.915 228.8 9.71 237.2l98.14 52.63l-74.51 83.5c-10.88 12.25-1.78 31 13.35 31c1.25 0 2.657-.25 4.032-.5l108.6-23.63l-4.126 112.5C154.7 504.4 164.1 512 173.6 512c5.125 0 10.38-2.25 14.25-7.25l68.13-88.88l68.23 88.88C327.1 509.8 333.2 512 338.4 512c9.5 0 18.88-7.625 18.38-19.25l-4.032-112.5l108.5 23.63c17.38 3.75 29.25-17.25 17.38-30.5l-74.51-83.5l98.14-52.72C517.9 228.8 513.8 205 496.3 202.5zM338.5 311.6L286.6 300.4l2 53.75l-32.63-42.5l-32.63 42.5l2-53.75L173.5 311.6l35.63-39.87L162.1 246.6L214.7 239.2L194.7 189.4l45 28.63L255.1 166.8l16.25 51.25l45-28.63L297.2 239.2l52.63 7.375l-47 25.13L338.5 311.6z"/></svg>
